src/status/16/si-syncthing-1.svg

<svg xmlns="http://www.w3.org/2000/svg" viewBox="0 0 16 16">
 <path style="fill:#2e3440;opacity:1;fill-opacity:1;stroke:none;fill-rule:nonzero" d="M 11.499987 1.937872 A 7 7 0 0 0 1.937809 4.50005 7 7 0 0 0 1.899199 4.574736 1.5 1.5 0 0 0 0.171425 5.661079 1.5 1.5 0 0 0 1.032295 7.427821 7 7 0 0 0 4.499987 14.06223 7 7 0 0 0 8.404229 14.983476 1.5 1.5 0 0 0 10.03529 15.595899 1.5 1.5 0 0 0 11.140639 14.251687 7 7 0 0 0 14.06216 11.50005 7 7 0 0 0 14.89331 9.16984 1.5 1.5 0 0 0 15.962523 8.106971 1.5 1.5 0 0 0 15.182651 6.375716 1.5 1.5 0 0 0 14.901136 6.269565 1.5 1.5 0 0 0 14.769707 6.243301 7 7 0 0 0 11.499987 1.937872 z m -0.5 0.866025 A 6 6 0 0 1 13.779578 6.41138 1.5 1.5 0 0 0 13.06373 7.330952 1.5 1.5 0 0 0 13.0177 7.602074 L 10.283 8.335 A 1.5 1.5 0 0 0 8.660838 7.734329 1.5 1.5 0 0 0 7.940589 8.173242 L 3.117 6.137 A 1.5 1.5 0 0 0 2.763272 5.078119 6 6 0 0 1 2.803834 5.00005 6 6 0 0 1 10.999987 2.803898 z m 2.27651 5.764 A 1.5 1.5 0 0 0 13.893891 9.08448 6 6 0 0 1 13.196139 11.00005 6 6 0 0 1 10.862073 13.265426 1.5 1.5 0 0 0 9.974601 12.685385 L 9.715 10.526 A 1.5 1.5 0 0 0 10.541777 9.300664 z M 7.552748 9.095 A 1.5 1.5 0 0 0 7.600291 9.57125 1.5 1.5 0 0 0 8.720548 10.646533 L 8.98 12.806 A 1.5 1.5 0 0 0 8.157417 13.992996 6 6 0 0 1 4.999987 13.196203 6 6 0 0 1 2.028661 7.491127 1.5 1.5 0 0 0 2.726589 7.05962 z"/>
</svg>

<svg viewBox="0 0 16 16" xmlns="http://www.w3.org/2000/svg">
 <path d="m11.5 1.9379a7 7 0 0 0-9.5622 2.5622 7 7 0 0 0-0.03861 0.074686 1.5 1.5 0 0 0-1.7278 1.0863 1.5 1.5 0 0 0 0.86087 1.7667 7 7 0 0 0 3.4677 6.6344 7 7 0 0 0 3.9042 0.92125 1.5 1.5 0 0 0 1.6311 0.61242 1.5 1.5 0 0 0 1.1053-1.3442 7 7 0 0 0 2.9215-2.7516 7 7 0 0 0 0.83115-2.3302 1.5 1.5 0 0 0 1.0692-1.0629 1.5 1.5 0 0 0-0.77987-1.7313 1.5 1.5 0 0 0-0.28152-0.10615 1.5 1.5 0 0 0-0.13143-0.026264 7 7 0 0 0-3.2697-4.3054zm-0.5 0.86602a6 6 0 0 1 2.7796 3.6075 1.5 1.5 0 0 0-0.71585 0.91957 1.5 1.5 0 0 0-0.04603 0.27112l-2.7347 0.73293a1.5 1.5 0 0 0-1.6222-0.60067 1.5 1.5 0 0 0-0.72025 0.43891l-4.8236-2.0362a1.5 1.5 0 0 0-0.35373-1.0589 6 6 0 0 1 0.040562-0.078069 6 6 0 0 1 8.1962-2.1962zm2.2765 5.764a1.5 1.5 0 0 0 0.61739 0.51658 6 6 0 0 1-0.69775 1.9156 6 6 0 0 1-2.3341 2.2654 1.5 1.5 0 0 0-0.88747-0.58004l-0.2596-2.1594a1.5 1.5 0 0 0 0.82678-1.2253zm-5.7237 0.5271a1.5 1.5 0 0 0 0.047543 0.47625 1.5 1.5 0 0 0 1.1203 1.0753l0.25945 2.1595a1.5 1.5 0 0 0-0.82258 1.187 6 6 0 0 1-3.1574-0.79679 6 6 0 0 1-2.9713-5.7051 1.5 1.5 0 0 0 0.69793-0.43151z" fill="#2e3440"/>
</svg>
